svg/image_filter_drama.svg

<svg xmlns="http://www.w3.org/2000/svg" viewBox="0 0 24 24"><path d="M19 18H6a4 4 0 0 1-4-4 4 4 0 0 1 4-4 4 4 0 0 1 4 4h2c0-2.76-1.86-5.08-4.4-5.78C8.61 6.88 10.2 6 12 6c3.03 0 5.5 2.47 5.5 5.5v.5H19a3 3 0 0 1 3 3 3 3 0 0 1-3 3m.35-7.96A7.49 7.49 0 0 0 12 4a7.48 7.48 0 0 0-6.64 4.04A5.996 5.996 0 0 0 0 14a6 6 0 0 0 6 6h13a5 5 0 0 0 5-5c0-2.64-2.05-4.78-4.65-4.96"/></svg>

<?xml version="1.0" encoding="UTF-8"?><!DOCTYPE svg PUBLIC "-//W3C//DTD SVG 1.1//EN" "http://www.w3.org/Graphics/SVG/1.1/DTD/svg11.dtd"><svg xmlns="http://www.w3.org/2000/svg" xmlns:xlink="http://www.w3.org/1999/xlink" version="1.1" id="mdi-image-filter-drama" width="24" height="24" viewBox="0 0 24 24"><path d="M19,18H6A4,4 0 0,1 2,14A4,4 0 0,1 6,10A4,4 0 0,1 10,14H12C12,11.24 10.14,8.92 7.6,8.22C8.61,6.88 10.2,6 12,6C15.03,6 17.5,8.47 17.5,11.5V12H19A3,3 0 0,1 22,15A3,3 0 0,1 19,18M19.35,10.04C18.67,6.59 15.64,4 12,4C9.11,4 6.61,5.64 5.36,8.04C2.35,8.36 0,10.9 0,14A6,6 0 0,0 6,20H19A5,5 0 0,0 24,15C24,12.36 21.95,10.22 19.35,10.04Z" /></svg>
